src/images/services/trawl-services.svg

<svg width="96" height="96" viewBox="0 0 96 96" fill="none" xmlns="http://www.w3.org/2000/svg">
<path fill-rule="evenodd" clip-rule="evenodd" d="M88.25 31H0V29H88.25H89.25H89.5H90.25V29.0464C93.2097 29.4155 95.5 31.9403 95.5 35V48.5V49.5V50.5V56V56.25V57V57.25V72.25C95.5 73.9069 94.1569 75.25 92.5 75.25H91.25C89.5931 75.25 88.25 73.9069 88.25 72.25V71.5H83.4976C83.3644 78.5643 77.5962 84.25 70.5 84.25C63.4038 84.25 57.6356 78.5643 57.5024 71.5H54.9976C54.8644 78.5643 49.0962 84.25 42 84.25C34.9038 84.25 29.1356 78.5643 29.0024 71.5H21.625C18.8636 71.5 16.625 69.2614 16.625 66.5V57.25H0V55.25H93.5V50.5H90.25H89.25H88.25H0V48.5H88.25V31ZM88.25 69.5V57.25H18.625V66.5C18.625 68.1569 19.9681 69.5 21.625 69.5H29.1168C29.9715 63.1479 35.4138 58.25 42 58.25C48.5862 58.25 54.0285 63.1479 54.8832 69.5H57.6168C58.4715 63.1479 63.9138 58.25 70.5 58.25C77.0862 58.25 82.5285 63.1479 83.3832 69.5H88.25ZM90.25 58V70.5V71.5V72.25C90.25 72.8023 90.6977 73.25 91.25 73.25H92.5C93.0523 73.25 93.5 72.8023 93.5 72.25V58H90.25ZM90.25 48.5V31.0702C92.1006 31.4213 93.5 33.0472 93.5 35V48.5H90.25ZM31 71.25C31 65.1749 35.9249 60.25 42 60.25C48.0751 60.25 53 65.1749 53 71.25C53 77.3251 48.0751 82.25 42 82.25C35.9249 82.25 31 77.3251 31 71.25ZM42 67.75C40.067 67.75 38.5 69.317 38.5 71.25C38.5 73.183 40.067 74.75 42 74.75C43.933 74.75 45.5 73.183 45.5 71.25C45.5 69.317 43.933 67.75 42 67.75ZM36.5 71.25C36.5 68.2124 38.9624 65.75 42 65.75C45.0376 65.75 47.5 68.2124 47.5 71.25C47.5 74.2876 45.0376 76.75 42 76.75C38.9624 76.75 36.5 74.2876 36.5 71.25ZM70.5 67.75C68.567 67.75 67 69.317 67 71.25C67 73.183 68.567 74.75 70.5 74.75C72.433 74.75 74 73.183 74 71.25C74 69.317 72.433 67.75 70.5 67.75ZM65 71.25C65 68.2124 67.4624 65.75 70.5 65.75C73.5376 65.75 76 68.2124 76 71.25C76 74.2876 73.5376 76.75 70.5 76.75C67.4624 76.75 65 74.2876 65 71.25ZM70.5 60.25C64.4249 60.25 59.5 65.1749 59.5 71.25C59.5 77.3251 64.4249 82.25 70.5 82.25C76.5751 82.25 81.5 77.3251 81.5 71.25C81.5 65.1749 76.5751 60.25 70.5 60.25Z" fill="#00CC66"/>
</svg>

<svg xmlns="http://www.w3.org/2000/svg" width="96" height="96" fill="none"><path fill="#0C6" fill-rule="evenodd" d="M88.25 31H0v-2h90.25v.046A6.001 6.001 0 0 1 95.5 35v37.25a3 3 0 0 1-3 3h-1.25a3 3 0 0 1-3-3v-.75h-4.752c-.134 7.064-5.902 12.75-12.998 12.75-7.096 0-12.864-5.686-12.998-12.75h-2.504C54.864 78.564 49.096 84.25 42 84.25c-7.096 0-12.864-5.686-12.998-12.75h-7.377a5 5 0 0 1-5-5v-9.25H0v-2h93.5V50.5H0v-2h88.25V31Zm0 38.5V57.25H18.625v9.25a3 3 0 0 0 3 3h7.492C29.97 63.148 35.414 58.25 42 58.25c6.586 0 12.029 4.898 12.883 11.25h2.734c.855-6.352 6.297-11.25 12.883-11.25 6.586 0 12.028 4.898 12.883 11.25h4.867Zm2-11.5v14.25a1 1 0 0 0 1 1h1.25a1 1 0 0 0 1-1V58h-3.25Zm0-9.5V31.07A4.001 4.001 0 0 1 93.5 35v13.5h-3.25ZM31 71.25c0-6.075 4.925-11 11-11s11 4.925 11 11-4.925 11-11 11-11-4.925-11-11Zm11-3.5a3.5 3.5 0 1 0 0 7 3.5 3.5 0 0 0 0-7Zm-5.5 3.5a5.5 5.5 0 1 1 11 0 5.5 5.5 0 0 1-11 0Zm34-3.5a3.5 3.5 0 1 0 0 7 3.5 3.5 0 0 0 0-7Zm-5.5 3.5a5.5 5.5 0 1 1 11 0 5.5 5.5 0 0 1-11 0Zm5.5-11c-6.075 0-11 4.925-11 11s4.925 11 11 11 11-4.925 11-11-4.925-11-11-11Z" clip-rule="evenodd"/></svg>
